X:17
T: Josefin's Dopvals / Josefin's Baptism waltz  (Roger Tallroth \2511993) %% X: 53
M: 3/4
L: 1/8
K: G
% %%vskip .4cm
                                                                             z2 "D7"D2 |\
"G"D2 G2 A2 |B2 d2 c2 |B2 A2 G2 |D4 E2 |"C"C3 C C2 |E2 G2 F2 |"Am"E6  |"D"D6           |
"G"D2 G2 A2 |B2 d2 c2 |B2 A2 G2 |D4 E2 |"C"C3 C C2 |D2 F2 G2 | "D"A6- |   A2          :|
|:                                                                                        B2 c2 |\
 "G"d2 B2 d2 |   g4 f2 |"C"e6 |"G/B"d6       |"Am"c2  e2 d2 |    c2 B2 A2 |"G"B3 c B2 |"D"A2 B2 c2 |
 "G"d2 B2 d2 |   g4 f2 |"C"e6 |"G/B"d6       |"Am"c2  e2 d2 |    c2 B2 A2 |"G"B3 c B2 |"D"A2 B2 c2 |
"Em"B2 A2 G2 |"D"F4 G2 |"C"G6 |     C2 D2 C2 | "G"B,2 D2 G2 |"D7"F2 E2 F2 |"G"G6-     |   G2      :|
% %%stretchlast

